svgs/thin/diagram-previous.svg

<svg xmlns="http://www.w3.org/2000/svg" viewBox="0 0 512 512"><!--! Font Awesome Pro 6.4.0 by @fontawesome - https://fontawesome.com License - https://fontawesome.com/license (Commercial License) Copyright 2023 Fonticons, Inc. --><path d="M496 352c0-26.5-21.5-48-48-48L64 304c-26.5 0-48 21.5-48 48l0 64c0 26.5 21.5 48 48 48l384 0c26.5 0 48-21.5 48-48V352zm-48-64c35.3 0 64 28.7 64 64v64c0 35.3-28.7 64-64 64H64c-35.3 0-64-28.7-64-64V352c0-35.3 28.7-64 64-64H248V163.3l-50.3 50.3c-3.1 3.1-8.2 3.1-11.3 0s-3.1-8.2 0-11.3l64-64c3.1-3.1 8.2-3.1 11.3 0l64 64c3.1 3.1 3.1 8.2 0 11.3s-8.2 3.1-11.3 0L264 163.3V288H448zM512 96v64c0 35.3-28.7 64-64 64H400c-4.4 0-8-3.6-8-8s3.6-8 8-8h48c26.5 0 48-21.5 48-48V96c0-26.5-21.5-48-48-48L64 48C37.5 48 16 69.5 16 96l0 64c0 26.5 21.5 48 48 48h48c4.4 0 8 3.6 8 8s-3.6 8-8 8H64c-35.3 0-64-28.7-64-64V96C0 60.7 28.7 32 64 32l384 0c35.3 0 64 28.7 64 64z"/></svg>

<svg xmlns="http://www.w3.org/2000/svg" viewBox="0 0 512 512"><!--! Font Awesome Pro 6.3.0 by @fontawesome - https://fontawesome.com License - https://fontawesome.com/license (Commercial License) Copyright 2023 Fonticons, Inc. --><path d="M448 288C483.3 288 512 316.7 512 352V416C512 451.3 483.3 480 448 480H64C28.65 480 0 451.3 0 416V352C0 316.7 28.65 288 64 288H248V163.3L197.7 213.7C194.5 216.8 189.5 216.8 186.3 213.7C183.2 210.5 183.2 205.5 186.3 202.3L250.3 138.3C253.5 135.2 258.5 135.2 261.7 138.3L325.7 202.3C328.8 205.5 328.8 210.5 325.7 213.7C322.5 216.8 317.5 216.8 314.3 213.7L264 163.3V288L448 288zM448 304H64C37.49 304 16 325.5 16 352V416C16 442.5 37.49 464 64 464H448C474.5 464 496 442.5 496 416V352C496 325.5 474.5 304 448 304zM512 160C512 195.3 483.3 224 448 224H400C395.6 224 392 220.4 392 216C392 211.6 395.6 208 400 208H448C474.5 208 496 186.5 496 160V96C496 69.49 474.5 48 448 48H64C37.49 48 16 69.49 16 96V160C16 186.5 37.49 208 64 208H112C116.4 208 120 211.6 120 216C120 220.4 116.4 224 112 224H64C28.65 224 0 195.3 0 160V96C0 60.65 28.65 32 64 32H448C483.3 32 512 60.65 512 96V160z"/></svg>
